X:1
T:Der Abendhimmel
T:Anton Bruckner (1824-1896) Edited by Alexander Reuter
T:Joseph Christian von Zedlitz
T:Der Abendhimmel
T:1. Fassung WAB 55
C:Anton Bruckner
C:(1824-1896)
C:Edited by Alexander Reuter
Z:Joseph Christian von Zedlitz
%%score [ 1 2 3 4 ]
L:1/8
M:6/8
K:Ab
V:1 treble-8 transpose=-12 nm="Tenor I" snm="T."
V:2 treble-8 transpose=-12 nm="Tenor II" snm="T."
V:3 bass nm="Bass I" snm="B."
V:4 bass nm="Bass II" snm="B."
V:1
 x!p! E | c2 A (d>c)B |!>(! (e2 f) (ed)!>)!c | B2 B (fB)_c | B2 z z2 E | (cA)c"^cresc." (gf)e | %6
w: Wenn|ich an dei- * ner|Sei- * te _ im|A- bend- dun- * kel|geh', der|Mond _ und sein _ Ge-|
 (=d2 f) e2!mf! f | g2 e!>(! (fe)=d | e2!>)! z z2!p! e | e2 B!>(! g2 =d | e2!>)! z z2!mf! e | %11
w: lei- * te, die|tau- send Ster- * ne|seh', die|tau- send Ster- ne|seh' dann|
 d>cB!>(! (cd)c | _g3!>)! f2 g | fcd (e>f)_g | f2 z z2!mf! F | f>ed!>(! (ed)c | (d2 =E)!>)! F2 c | %17
w: möcht ich den Mond * um-|fan- gen, und|drü- cken an mei- * ne|Brust, die|Ster- ne her- un- * ter|lan- * gen in|
 d2 _e d2 d | d2 z z2 d |!f! a>_gf (gf)e |!>(! =d2- _d c2!>)! d |!<(! e2 f =g2!<)! f | %22
w: vol- ler, sel'- ger|Lust, die|Ster- ne her- un- * ter|lan- * gen in|vol- ler, sel'- ger|
!>(! e3- e2!>)!!p! E | c>BA dcB | (e2 f) (ed)!mf!c | d>cB (ed)c | (_g3 f2) f |!f! f2 f fff | %28
w: Lust. _ Mit|ih- nen die Lo- cken dir|schmü- * cken * und|schmü- cken die schö- * ne|Brust, _ ich|möcht dich schmü- cken und|
!>(! b3 e2!>)!!p! f | ee!<(!d e2!<)! f |!>(! =g2!>)! z z2!mf! B | g2 g fff |!>(! b3 a2!>)!!p! g | %33
w: drü- cken und|ster- ben vor Wonn' und|Lust. Ich|möcht dich schmü- cken und|drü- cken und|
 f>ed d2 G | A3!pp! e3 | (B3 c3) | F3 d3 | G3 B3 | c3- c z x |] %39
w: ster- ben vor Wonn' und|Lust, und|ster- *|ben vor|Wonn' und|Lust. _|
V:2
 x!p! E | A2 A G2 G |!>(! A3 G2!>)! A | A2 A A2 A | G2 z z2 E | A2 A"^cresc." c2 c | %6
w: Wenn|ich an dei- ner|Sei- te im|A- bend- dun- kel|geh', der|Mond und sein Ge-|
 (B2 =d) e2!mf! e | e2 B!>(! B2 A | G2!>)! z z2!p! c | B2 G!>(! e2 B | B2!>)! z z2!mf! B | %11
w: lei- * te, die|tau- send Ster- ne|seh', die|tau- send Ster- ne|seh' dann|
 B>BB!>(! =A2 A | e3!>)! d2 d | (dA)A (d2 c) | (dA)_G (F>G)!mf!F | F>FF!>(! (=AB)c | %16
w: möcht ich den Mond um-|fan- gen, und|drü- * cken an _|mei- * ne Brust, * die|Ster- ne her- un- * ter|
 (B2 =E)!>)! F2 F | (FB)A (AB)_c | B2 z z2 d |!f! d>dd (cF)F |!>(! (F B2) B2!>)! A | %21
w: lan- * gen in|vol- * ler, sel'- * ger|Lust, die|Ster- ne her- un- * ter|lan- * gen in|
!<(! d2 d d2!<)! d |!>(! d3- d2!>)!!p! E | A>EE GAG | A3 G2!mf! _G | F>=AB A2 A | d3- d2 e | %27
w: vol- ler, sel'- ger|Lust. _ Mit|ih- nen die Lo- cken dir|schmü- cken und|schmü- cken die schö- ne|Brust, _ ich|
!f! d2 d edd |!>(!!>(! e3 c2!>)!!p! d!>)! | _cB!<(!B B2!<)! =d |!>(! e2!>)! z z2!mf! B | e2 e BBf | %32
w: möcht dich schmü- cken und|drü- cken und|ster- ben vor Wonn' und|Lust. Ich|möcht dich schmü- cken und|
!>(! _f3 e2!>)!!p! e | dAA G2 B | A3!pp! A3 | G3 _G3 | F3 A3 | _F3 E3 | A3- A z x |] %39
w: drü- cken und|ster- ben vor Wonn' und|Lust, und|ster- *|ben vor|Wonn' und|Lust. _|
V:3
 x!p! E, | E,2 C, E,2 E, |!>(! E,3 E,2!>)! E, |!<(! (F,3!<)! B,2) F, | G,2 B, (G,F,)E, | %5
w: Wenn|ich an dei- ner|Sei- te im|A- * bend-|dun- kel geh', _ der|
 (E,C,)E,"^cresc." (B,A,)G, | (F,2 B,) B,2!mf! C | B,2 G,!>(! (A,G,)F, | E,2!>)! z z2!p! A, | %9
w: Mond _ und sein _ Ge-|lei- * te, die|tau- send Ster- * ne|seh', die|
 G,2 E,!>(! B,2 A, | G,2!>)! z z2!mf! _G, | F,>E,D,!>(! (E,F,)E, | =A,3!>)! B,2 B, | %13
w: tau- send Ster- ne|seh' dann|möcht ich den Mond * um-|fan- gen, und|
 _A,_G,F, (B,A,)A, | A,2 z z2!mf! F, | F,>F,F,!>(! F,2 F, | (F,2 D,)!>)! C,2 F, | %17
w: drü- cken an mei- * ne|Brust, die|Ster- ne her- un- ter|lan- * gen in|
 (F,_G,)G, G,2 F, | _G,2 z z2 B, |!f! A,>A,A, =A,2 A, |!>(! (_A,2 G,) G,2!>)! A, | %21
w: vol- * ler, sel'- ger|Lust, die|Ster- ne her- un- ter|lan- * gen in|
!<(! B,2 A, E2!<)! B, |!>(! (B,3 G,2)!>)!!p! E, | E,>D,C, E,E,E, | E,3 E,2!mf! E, | %25
w: vol- ler, sel'- ger|Lust. _ Mit|ih- nen die Lo- cken dir|schmü- cken und|
 D,>E,F, F,2 _G, | (B,3 D2) C |!f! D2 D _CCB, |!>(! D3 A,2!>)!!p! A, | A,A,!<(!A, (=G,B,)!<)!B, | %30
w: schmü- cken die schö- ne|Brust, _ ich|möcht dich schmü- cken und|drü- cken und|ster- ben vor Wonn' * und|
!>(! B,2!>)! z z2!mf! B, | B,2 B, A,A,A, |!>(! =G,3 A,2!>)!!p! A, | A,>G,F, E,2 D, | C,3!pp! C,3 | %35
w: Lust. Ich|möcht dich schmü- cken und|drü- cken und|ster- ben vor Wonn' und|Lust, und|
 (D,3 E,3) | D,3 F,3 | D,3 D,3 | E,3- E, z x |] %39
w: ster- *|ben vor|Wonn' und|Lust. _|
V:4
 x!p! E, | A,,2 A,, B,,2 D, |!>(! C,3 B,,2!>)! A,, | D,2 D, =D,2 D, | E,2 z z2 E, | %5
w: Wenn|ich an dei- ner|Sei- te im|A- bend- dun- kel|geh', der|
 A,,2 A,,"^cresc." A,,2 =A,, | (B,,2 _A,) G,2!mf! A, | B,2 B,!>(! B,,2 =B,, | %8
w: Mond und sein Ge-|lei- * te, die|tau- send Ster- ne|
 C,2!>)!!p! E, (G,G,,)A,, | B,,3!>(! B,,3 | E,2!>)! z z2!mf! E, | B,,>B,,B,,!>(! B,,2 B,, | %12
w: seh', die tau- * send|Ster- ne|seh' dann|möcht ich den Mond um-|
 B,,3!>)! B,,2 _G,, | D,E,F, (_G,A,)A, | D,2 z z2!mf! D, | D,>C,B,,!>(! (C,B,,)=A,, | %16
w: fan- gen, und|drü- cken an mei- * ne|Brust, die|Ster- ne her- un- * ter|
 B,,3!>)! =A,,2 A,, | B,,2 _C, D,2 D, | _G,,2 A,, (B,,>A,,)A,, |!f! (F,>E,)D, (E,D,)C, | %20
w: lan- gen in|vol- ler, sel'- ger|Lust, in sel'- * ger|Lust, _ her- un- * ter|
!>(! (B,,2 E,) =E,2!>)! F, |!<(! =G,2 A, B,2!<)! A, |!>(! (G,3 E,2)!>)!!p! E, | %23
w: lan- * gen in|vol- ler, sel'- ger|Lust. _ Mit|
 A,,>A,,A,, B,,C,D, | C,3 B,,2!mf! =A,, | B,,>C,D, (C,D,)E, | (D,3 B,2) =A, |!f! B,2 B, _A,A,A, | %28
w: ih- nen die Lo- cken dir|schmü- cken und|schmü- cken die schö- * ne|Brust, _ ich|möcht dich schmü- cken und|
!>(! =G,3 _G,2!>)!!p! F, | F,F,!<(!F, =G,2!<)! B, |!>(! E,2!>)! z z2!mf! B, | E,2 E, =D,D,D, | %32
w: drü- cken und|ster- ben vor Wonn' und|Lust. Ich|möcht dich schmü- cken und|
!>(! _D,3 C,2!>)!!p! C, | D,>D,D, E,2 E, | A,,3!pp! A,,3 | A,,6 | A,,3 A,,3 | A,,3 A,,3 | %38
w: drü- cken und|ster- ben vor Wonn' und|Lust, und|ster-|ben vor|Wonn' und|
 A,,3- A,, z x |] %39
w: Lust. _|

